imgs/HungaryFlag.svg

<svg width="25" height="18" viewBox="0 0 25 18" fill="none" xmlns="http://www.w3.org/2000/svg">
<path d="M23.5068 17.5H0.506836V0.5H23.5068V17.5Z" fill="white" stroke="#F5F2E9"/>
<path fill-rule="evenodd" clip-rule="evenodd" d="M23 17H1V12H23V17Z" fill="#388D00"/>
<path fill-rule="evenodd" clip-rule="evenodd" d="M23 6H1V1H23V6Z" fill="#D43516"/>
</svg>

<svg width="25" height="18" fill="none" xmlns="http://www.w3.org/2000/svg"><path d="M23.507 17.5h-23V.5h23v17z" fill="#fff" stroke="#F5F2E9"/><path fill-rule="evenodd" clip-rule="evenodd" d="M23 17H1v-5h22v5z" fill="#388D00"/><path fill-rule="evenodd" clip-rule="evenodd" d="M23 6H1V1h22v5z" fill="#D43516"/></svg>
